X:46
T: The Wandering Minstrel
T:An Ceoltoir Fanach
R:jig
D:Brian Rooney, The Godfather
S:Ceol Rince na h'Eireann
L:1/8
M:6/8
K:D
d/2B/2| ADD BAF | Ade fdB | ADD BAG | FAF GFE | 
ADD BAF | Ade fdB | AdB AFE | FDD D3 ||
||~f3 ede | fdB AFA | BdB AFA | AGF E2 g | 
((4fgaf) ede | fdB AFA | BdB AFE | FDD D2 ||
|g | fdf agf | gbe gbe | fdf afd | ceA ceA | 
fdf afd | gbe gbe | ~f3 ede | fdd d2 ||
